_src/static/img/icon/baby.svg

<svg width="25" height="20" viewBox="0 0 25 20" fill="none" xmlns="http://www.w3.org/2000/svg">
<path d="M2.59906 7.42157H2.05857C0.926967 7.42157 0 8.3419 0 9.47093C0 10.5999 0.926719 11.5243 2.05857 11.5243H2.49324C3.38435 16.0301 7.52806 19.4327 12.4841 19.4327C17.4402 19.4327 21.5846 16.0301 22.4758 11.5243H22.9447C24.0765 11.5243 25 10.5999 25 9.47093C25 8.3419 24.0763 7.42157 22.9447 7.42157H22.3716C21.3865 3.5253 17.9434 0.549034 13.7141 0.0596971C13.965 0.411035 14.117 0.836243 14.117 1.29137V3.36591C14.117 4.50902 13.1832 5.44044 12.0372 5.44044C10.8913 5.44044 9.94895 4.50806 9.95425 3.36265L9.96077 2.11064C9.95832 1.78403 10.1233 1.58152 10.2497 1.43268C10.6952 0.908197 11.496 0.841333 12.0218 1.28576C12.5476 1.73015 12.6154 2.52886 12.1699 3.05337C11.811 3.47686 11.1737 2.9393 11.5326 2.51586C11.6869 2.3342 11.6659 2.07463 11.4837 1.92071C11.3016 1.76673 11.0521 1.8305 10.8822 1.93687C10.8281 1.97081 10.7979 2.01196 10.7943 2.10656L10.7886 3.36591C10.7854 4.06047 11.3386 4.609 12.0373 4.609C12.7359 4.609 13.2835 4.0628 13.2835 3.36591V1.29137C13.2835 0.594497 12.7408 0.00284389 12.0222 0C7.43503 0.201869 3.64166 3.29752 2.59907 7.42157H2.59906ZM8.31895 6.98556C9.01109 6.98556 9.58063 7.55284 9.58063 8.24323C9.58063 8.93363 9.01109 9.50176 8.31895 9.50176C7.62682 9.50176 7.05483 8.93363 7.05483 8.24323C7.05483 7.55284 7.62682 6.98556 8.31895 6.98556ZM16.6534 6.98556C17.3455 6.98556 17.9142 7.55284 17.9142 8.24323C17.9142 8.93363 17.3455 9.50176 16.6534 9.50176C15.9612 9.50176 15.3917 8.93363 15.3917 8.24323C15.3917 7.55284 15.9612 6.98556 16.6534 6.98556ZM8.70641 12.825H16.2407C16.4697 12.8259 16.655 13.0115 16.6558 13.2399C16.6558 14.2588 15.8897 14.9919 15.0409 15.4427C14.192 15.8936 13.2194 16.1183 12.4841 16.1183C11.7488 16.1183 10.7771 15.8936 9.92821 15.4427C9.07935 14.9919 8.31 14.2588 8.31 13.2399C8.30969 13.0261 8.47158 12.8463 8.70641 12.825Z" fill="white"/>
</svg>

<svg width="25" height="20" fill="none" xmlns="http://www.w3.org/2000/svg"><path d="M2.6 7.422h-.541A2.06 2.06 0 000 9.47c0 1.129.927 2.053 2.059 2.053h.434c.891 4.506 5.035 7.909 9.991 7.909 4.956 0 9.1-3.403 9.992-7.909h.469A2.06 2.06 0 0025 9.471c0-1.13-.924-2.05-2.055-2.05h-.573C21.387 3.526 17.943.55 13.714.06c.251.351.403.776.403 1.231v2.075a2.081 2.081 0 01-4.163-.003l.007-1.252c-.003-.327.162-.53.289-.678a1.266 1.266 0 011.772-.147c.526.444.593 1.243.148 1.767-.359.424-.996-.114-.637-.537a.415.415 0 00-.05-.595c-.181-.154-.43-.09-.6.016-.055.034-.085.075-.089.17l-.005 1.259a1.233 1.233 0 001.248 1.243c.699 0 1.246-.546 1.246-1.243V1.29c0-.697-.542-1.288-1.26-1.291-4.588.202-8.381 3.298-9.424 7.422zm5.719-.436c.692 0 1.262.567 1.262 1.257s-.57 1.259-1.262 1.259a1.268 1.268 0 01-1.264-1.259c0-.69.572-1.257 1.264-1.257zm8.334 0c.693 0 1.261.567 1.261 1.257s-.569 1.259-1.26 1.259a1.266 1.266 0 01-1.262-1.259c0-.69.57-1.257 1.261-1.257zm-7.947 5.839h7.535c.229 0 .414.187.415.415 0 1.019-.766 1.752-1.615 2.203-.849.45-1.822.675-2.557.675-.735 0-1.707-.224-2.556-.675-.849-.451-1.618-1.184-1.618-2.203a.42.42 0 01.396-.415z" fill="#fff"/></svg>
